fs/person_swap_20_filled.svg

<svg viewBox="0 0 20 20" fill="none" xmlns="http://www.w3.org/2000/svg" height="1em" width="1em">
  <path d="M9 2C6.79086 2 5 3.79086 5 6C5 8.20914 6.79086 10 9 10C11.2091 10 13 8.20914 13 6C13 3.79086 11.2091 2 9 2ZM4.00873 11C2.90315 11 2 11.8869 2 13C2 14.6912 2.83281 15.9663 4.13499 16.7966C5.41697 17.614 7.14526 18 9 18C9.28702 18 9.57101 17.9908 9.85078 17.9721L8.43934 16.5607C7.85355 15.9749 7.85355 15.0251 8.43934 14.4393L10.4393 12.4393C11.0251 11.8536 11.9749 11.8536 12.5607 12.4393C12.9827 12.8614 13.1007 13.4723 12.9146 14H14.0854C13.8993 13.4723 14.0173 12.8614 14.4393 12.4393C14.7944 12.0842 15.2833 11.9444 15.7437 12.0198C15.4008 11.4111 14.7484 11 14 11L4.00873 11ZM11.8536 17.8536C11.6583 18.0488 11.3417 18.0488 11.1464 17.8536L9.14645 15.8536C8.95118 15.6583 8.95118 15.3417 9.14645 15.1464L11.1464 13.1464C11.3417 12.9512 11.6583 12.9512 11.8536 13.1464C12.0488 13.3417 12.0488 13.6583 11.8536 13.8536L10.7071 15H16.2929L15.1464 13.8536C14.9512 13.6583 14.9512 13.3417 15.1464 13.1464C15.3417 12.9512 15.6583 12.9512 15.8536 13.1464L17.8536 15.1464C18.0488 15.3417 18.0488 15.6583 17.8536 15.8536L15.8536 17.8536C15.6583 18.0488 15.3417 18.0488 15.1464 17.8536C14.9512 17.6583 14.9512 17.3417 15.1464 17.1464L16.2929 16H10.7071L11.8536 17.1464C12.0488 17.3417 12.0488 17.6583 11.8536 17.8536Z" fill="#212121"/>
</svg>

<svg viewBox="0 0 20 20" fill="none" xmlns="http://www.w3.org/2000/svg" height="1em" width="1em">
  <path d="M9 2a4 4 0 1 0 0 8 4 4 0 0 0 0-8Zm-4.991 9A2.001 2.001 0 0 0 2 13c0 1.691.833 2.966 2.135 3.797C5.417 17.614 7.145 18 9 18c.287 0 .571-.01.85-.028l-1.41-1.411a1.5 1.5 0 0 1 0-2.122l2-2A1.5 1.5 0 0 1 12.914 14h1.17a1.5 1.5 0 0 1 1.659-1.98A2 2 0 0 0 14 11H4.009Zm7.845 6.854a.5.5 0 0 1-.708 0l-2-2a.5.5 0 0 1 0-.708l2-2a.5.5 0 0 1 .708.708L10.707 15h5.586l-1.147-1.146a.5.5 0 0 1 .708-.708l2 2a.5.5 0 0 1 0 .708l-2 2a.5.5 0 0 1-.708-.708L16.293 16h-5.586l1.147 1.146a.5.5 0 0 1 0 .708Z" fill="#212121"/>
</svg>
